images/service-1/usage-4.svg

<svg width="234" height="46" viewBox="0 0 234 46" fill="none" xmlns="http://www.w3.org/2000/svg">
<path fill-rule="evenodd" clip-rule="evenodd" d="M36.4973 0.0742188C34.069 0.148412 31.7143 0.296799 29.4332 0.593574C26.7841 0.964541 24.1351 1.4839 21.7068 2.15164C15.2313 3.93228 9.786 6.75164 6.03317 10.5355C2.57468 13.9484 0.587891 18.1774 0.587891 23C0.587891 27.8226 2.57468 32.0516 6.03317 35.5387C7.28412 36.8 8.8294 37.9871 10.4483 39.1V23.0742C10.4483 20.1065 14.7898 17.6581 20.4558 17.2871V11.0549C20.4558 9.94196 21.0445 8.90325 22.0747 8.08712C24.0615 6.38067 27.7407 5.26777 32.0086 5.26777C33.7747 5.26777 35.3936 5.49035 36.8652 5.78712C40.8388 6.67744 43.6351 8.68067 43.6351 11.0549C43.6351 13.4291 40.9124 15.4323 36.8652 16.3226C35.3936 16.6194 33.7747 16.842 32.0086 16.842C28.1086 16.842 24.6502 15.8774 22.5898 14.4678V17.2871C28.7709 17.4355 33.6275 19.9581 33.6275 23.0742C33.6275 26.1903 28.7709 28.7129 22.5898 28.8613V32.4226C22.5898 32.8678 22.7369 33.2387 23.252 33.2387H25.9747V34.871H22.1483C22.1483 34.871 22.1483 34.871 22.0747 34.871C21.1181 34.871 20.3822 34.0549 20.3822 33.2387V28.7871C17.1445 28.5645 14.3483 27.6742 12.5086 26.4129V40.2129C15.2313 41.6968 18.2483 42.8839 21.5596 43.7742C23.9879 44.442 26.6369 44.9613 29.286 45.2581C31.5671 45.5549 33.9219 45.7033 36.3502 45.7774H37.4539C48.0502 45.7774 57.5426 43.4033 64.386 39.1C70.6407 35.1678 74.5407 29.6033 74.5407 22.9258C74.5407 16.2484 70.6407 10.6839 64.386 6.75164C57.6162 2.52261 48.0502 0.0742188 37.5275 0.0742188H36.4973ZM41.4275 23.371C38.852 23.371 36.7181 21.6645 36.7181 19.6613C36.7181 17.5839 38.852 15.8774 41.4275 15.8774C44.003 15.8774 46.137 17.5839 46.137 19.6613C46.137 21.6645 44.0766 23.2968 41.4275 23.371ZM41.5011 17.5839C42.9728 17.5839 44.1502 18.4742 44.1502 19.6613C44.1502 20.7742 42.9728 21.6645 41.5011 21.6645C40.0294 21.6645 38.852 20.7742 38.852 19.6613C38.7785 18.4742 40.0294 17.5839 41.5011 17.5839ZM49.4483 20.4774C49.4483 20.9968 49.5219 21.2936 49.9634 21.2936H53.1275V23H49.0803C48.0502 23 47.3879 22.1839 47.3879 21.2936V16.1742H49.4483V20.4774ZM56.586 19.5129C57.3954 19.5129 58.2785 19.4387 58.2785 17.6581V16.1H60.3388V17.6581C60.3388 19.2162 59.8237 21.071 57.6898 21.071V22.8516H56.6596H55.6294V21.071C53.4954 20.9968 52.9803 19.142 52.9803 17.6581V16.1H55.0407V17.6581C54.8936 19.4387 55.7766 19.5129 56.586 19.5129ZM43.4143 29.8258V28.1936H49.7426V29.9H47.6086V35.0936H45.6219V29.9H43.4143V29.8258ZM55.7766 31.6807C55.7766 32.7936 56.6596 33.5355 58.4992 33.5355H60.3388V35.1678H58.2049C55.2615 35.0936 53.937 33.7581 53.937 31.6807C53.937 29.6033 55.2615 28.2678 58.2049 28.1936H60.3388V29.8258H58.4992C56.586 29.8258 55.7766 30.5678 55.7766 31.6807ZM40.1766 30.7903C43.5615 30.7162 43.7086 35.242 40.0294 35.0194H36.3502V33.3129H40.1766C40.986 33.3129 41.0596 32.4226 40.1766 32.4226H38.5577C37.0124 32.4226 35.9086 31.8291 35.9086 30.4194C35.9086 29.0097 36.9388 28.1194 38.4841 28.1194H42.1634V29.7516H38.4105C37.6011 29.7516 37.6011 30.7162 38.3369 30.7162H40.1766V30.7903ZM50.92 34.9452V28.1194H52.9803V34.9452H50.92ZM27.2992 32.2742C27.2992 29.0097 29.5068 28.1936 32.6709 28.1936H34.7313V35.0194H32.6709V33.3129H31.052H29.4332V35.0194H27.2256V32.8678V32.2742H27.2992ZM32.6709 31.6807H31.052H29.4332C29.4332 29.8258 30.6841 29.7516 32.5973 29.9V31.6807H32.6709Z" fill="white"/>
<path fill-rule="evenodd" clip-rule="evenodd" d="M23.0312 11.129C23.0312 9.05157 27.0784 7.41931 32.1558 7.41931C33.9218 7.41931 35.6143 7.64189 36.9388 7.93867C39.5879 8.60641 41.2803 9.7935 41.2803 11.129C41.2803 12.4645 39.5143 13.6516 36.9388 14.3193C35.5407 14.6903 33.9218 14.8387 32.1558 14.8387C27.0784 14.8387 23.0312 13.2064 23.0312 11.129Z" fill="white"/>
<path fill-rule="evenodd" clip-rule="evenodd" d="M22.1493 22.7774H22.6644V19.4387C27.521 19.5871 31.2738 21.1451 31.2738 23.1484C31.2738 25.1516 27.521 26.7839 22.6644 26.858V24.2613H22.1493H20.4568V26.7839C16.1153 26.4871 12.9512 24.929 12.9512 23.0742C12.9512 21.2193 16.1889 19.7355 20.4568 19.3645V22.7032H22.1493V22.7774Z" fill="white"/>
<path fill-rule="evenodd" clip-rule="evenodd" d="M189.997 29.0097C189.997 31.5322 192.204 32.0516 193.823 32.0516H196.766V35.0193H193.161C184.698 34.7968 185.066 22.9258 193.161 22.9258H196.766V25.8935H193.823C192.204 25.8935 189.997 26.4871 189.997 29.0097Z" fill="white"/>
<path fill-rule="evenodd" clip-rule="evenodd" d="M198.018 25.8935H201.918V35.0193H205.229V25.8935H209.129V22.9258H198.018V25.8935Z" fill="white"/>
<path fill-rule="evenodd" clip-rule="evenodd" d="M233.412 35.0193V31.9032C233.412 30.7161 233.412 29.529 231.867 28.6387C233.486 28.1193 233.412 26.1903 233.412 25.0032V22.9258H229.733C229.733 25.2258 230.027 27.1548 228.187 27.1548H226.201V22.9258H222.963V35.0193H226.348V30.1226H228.335C229.07 30.1226 229.806 30.5677 229.806 31.7548V35.0193H233.412Z" fill="white"/>
<path fill-rule="evenodd" clip-rule="evenodd" d="M105.374 22.9258C102.651 22.9258 100.223 22.9258 97.2793 22.9258C97.2793 26.9322 97.2793 31.0129 97.2793 35.0193H100.664V25.8935H103.681C104.491 25.8935 104.564 26.4871 104.564 27.3032V35.0193H107.949V25.5967C107.802 24.1871 106.772 23 105.374 22.9258Z" fill="white"/>
<path fill-rule="evenodd" clip-rule="evenodd" d="M157.546 22.9258C154.823 22.9258 152.395 22.9258 149.451 22.9258C149.451 26.9322 149.451 31.0129 149.451 35.0193H152.836V25.8935H155.853C156.662 25.8935 156.736 26.4871 156.736 27.3032V35.0193H160.121V25.5967C160.047 24.1871 159.017 23 157.546 22.9258Z" fill="white"/>
<path fill-rule="evenodd" clip-rule="evenodd" d="M129.731 12.6129C128.186 12.6129 126.861 12.6129 125.242 12.6129C125.242 14.8387 125.242 17.1387 125.242 19.3645H127.082V14.2452H128.774C129.216 14.2452 129.289 14.5419 129.289 15.0613V19.3645H131.203V14.0968C131.055 13.2807 130.54 12.6871 129.731 12.6129Z" fill="white"/>
<path fill-rule="evenodd" clip-rule="evenodd" d="M122.297 12.6129C120.752 12.6129 119.427 12.6129 117.809 12.6129C117.809 14.8387 117.809 17.1387 117.809 19.3645H119.648V14.2452H121.341C121.782 14.2452 121.856 14.5419 121.856 15.0613V19.3645H123.769V14.0968C123.695 13.2807 123.107 12.6871 122.297 12.6129Z" fill="white"/>
<path fill-rule="evenodd" clip-rule="evenodd" d="M129.878 22.9258C132.601 22.9258 132.159 22.9258 135.029 22.9258C135.029 26.9323 135.029 31.0129 135.029 35.0194H131.644V25.8936H130.173C128.333 25.8936 127.744 26.5613 127.744 29.0097V35.0194H124.359V28.7871C124.359 25.5226 125.905 22.8516 129.878 22.9258Z" fill="white"/>
<path fill-rule="evenodd" clip-rule="evenodd" d="M167.626 22.9258C170.349 22.9258 169.907 22.9258 172.777 22.9258C172.777 26.9323 172.777 31.0129 172.777 35.0194H169.392V25.8936H167.921C166.081 25.8936 165.492 26.5613 165.492 29.0097V35.0194H162.107V28.7871C162.107 25.5226 163.726 22.8516 167.626 22.9258Z" fill="white"/>
<path fill-rule="evenodd" clip-rule="evenodd" d="M180.283 22.9258C183.005 22.9258 182.564 22.9258 185.433 22.9258C185.433 26.9323 185.433 31.0129 185.433 35.0194H182.049V31.9032H178.149V35.0194H174.764V28.7871C174.764 25.5226 176.309 22.8516 180.283 22.9258ZM182.049 28.9355V25.8936C181.386 25.8936 180.503 25.8194 179.767 25.9678C178.59 26.1903 178.075 26.9323 178.075 28.9355H182.049Z" fill="white"/>
<path fill-rule="evenodd" clip-rule="evenodd" d="M135.69 12.6129C137.235 12.6129 136.941 12.6129 138.56 12.6129C138.56 14.8387 138.56 17.1387 138.56 19.3645H136.72V17.6581H134.513V19.3645H132.6V15.8774C132.6 14.0226 133.483 12.6129 135.69 12.6129ZM136.72 15.9516V14.2452H135.911C134.881 14.2452 134.586 14.6161 134.586 15.9516H136.72Z" fill="white"/>
<path fill-rule="evenodd" clip-rule="evenodd" d="M139.443 35.0193C142.165 35.0193 144.594 35.0193 147.537 35.0193C147.537 31.0129 147.537 26.9322 147.537 22.9258H144.152V32.0516H141.135C140.326 32.0516 140.252 31.458 140.252 30.6419V22.9258H136.867V32.3484C137.014 33.758 137.971 34.8709 139.443 35.0193Z" fill="white"/>
<path fill-rule="evenodd" clip-rule="evenodd" d="M213.103 35.0193C215.825 35.0193 218.254 35.0193 221.197 35.0193C221.197 31.0129 221.197 26.9322 221.197 22.9258H217.812V32.0516H214.795C213.986 32.0516 213.912 31.458 213.912 30.6419V22.9258H210.527V32.3484C210.675 33.758 211.705 34.8709 213.103 35.0193Z" fill="white"/>
<path fill-rule="evenodd" clip-rule="evenodd" d="M114.793 19.3645H110.304V17.6581H113.836C114.278 17.6581 114.351 17.4355 114.351 16.9903H111.702C110.893 16.9161 110.304 16.2484 110.23 15.5065V12.6129H112.144V14.5419C112.144 14.9871 112.217 15.3581 112.659 15.3581H114.351V12.6129H116.191C116.191 14.8387 116.191 14.7645 116.191 16.9903V17.8807C116.191 18.6226 115.602 19.2903 114.793 19.3645Z" fill="white"/>
<path fill-rule="evenodd" clip-rule="evenodd" d="M107.581 12.6129C106.109 12.6129 104.711 12.6129 103.166 12.6129C103.166 14.8387 103.166 17.1387 103.166 19.3645H105.006V18.029H107.213C108.832 18.029 109.126 16.9161 109.126 16.1742V14.0968C109.053 13.3549 108.538 12.6871 107.728 12.6129C107.655 12.6129 107.655 12.6129 107.581 12.6129ZM105.006 16.3968V14.2452H106.698C107.14 14.2452 107.213 14.5419 107.213 15.0613V15.8032C107.213 16.1742 106.919 16.3226 106.625 16.3226H105.006V16.3968Z" fill="white"/>
<path fill-rule="evenodd" clip-rule="evenodd" d="M98.7504 12.6129H101.841V14.2452H99.6334C99.1919 14.2452 99.1183 14.5419 99.1183 15.0613V19.3645H97.2051V14.0968C97.2787 13.2807 97.9409 12.6129 98.7504 12.6129Z" fill="white"/>
<path fill-rule="evenodd" clip-rule="evenodd" d="M115.528 22.9258H116.926C118.545 22.9258 120.09 23.5935 121.194 24.7064C122.298 25.8193 122.96 27.3032 122.96 29.0097C122.96 30.6419 122.298 32.2 121.194 33.3129C120.09 34.4258 118.619 35.0935 116.926 35.0935H115.528C113.909 35.0935 112.364 34.4258 111.26 33.3129C110.156 32.2 109.494 30.7161 109.494 29.0097C109.494 27.3774 110.156 25.8193 111.26 24.7064C112.364 23.5935 113.836 22.9258 115.528 22.9258ZM116.853 25.8935H115.455C114.571 25.8935 113.836 26.1903 113.247 26.7838C112.658 27.3774 112.364 28.1193 112.364 29.0097C112.364 29.9 112.732 30.6419 113.247 31.2355C113.836 31.829 114.571 32.1258 115.455 32.1258H116.853C117.736 32.1258 118.471 31.829 119.06 31.2355C119.649 30.6419 119.943 29.9 119.943 29.0097C119.943 28.1193 119.575 27.3774 119.06 26.7838C118.471 26.1903 117.736 25.8935 116.853 25.8935Z" fill="white"/>
<path d="M86.6839 12.6129H85.3594V35.0194H86.6839V12.6129Z" fill="white"/>
</svg>

<svg width="234" height="46" fill="none" xmlns="http://www.w3.org/2000/svg"><path fill-rule="evenodd" clip-rule="evenodd" d="M36.497.074c-2.428.074-4.783.223-7.064.52-2.649.37-5.298.89-7.726 1.558-6.476 1.78-11.921 4.6-15.674 8.383C2.575 13.949.588 18.178.588 23c0 4.823 1.987 9.052 5.445 12.539C7.284 36.8 8.83 37.987 10.448 39.1V23.074c0-2.968 4.342-5.416 10.008-5.787v-6.232c0-1.113.588-2.152 1.619-2.968 1.986-1.706 5.666-2.82 9.934-2.82 1.766 0 3.385.223 4.856.52 3.974.89 6.77 2.894 6.77 5.268 0 2.374-2.723 4.377-6.77 5.268-1.471.296-3.09.519-4.856.519-3.9 0-7.359-.965-9.42-2.374v2.82c6.182.148 11.038 2.67 11.038 5.786 0 3.116-4.856 5.639-11.037 5.787v3.562c0 .445.147.816.662.816h2.723v1.632h-3.9c-.957 0-1.693-.816-1.693-1.632v-4.452c-3.238-.223-6.034-1.113-7.873-2.374v13.8c2.722 1.484 5.74 2.67 9.05 3.561a50.888 50.888 0 007.727 1.484c2.281.297 4.636.445 7.064.52h1.104c10.596 0 20.089-2.375 26.932-6.678 6.255-3.932 10.155-9.497 10.155-16.174 0-6.678-3.9-12.242-10.155-16.174C57.616 2.522 48.05.074 37.528.074h-1.03zm4.93 23.297c-2.575 0-4.709-1.706-4.709-3.71 0-2.077 2.134-3.784 4.71-3.784 2.575 0 4.709 1.707 4.709 3.784 0 2.003-2.06 3.636-4.71 3.71zm.074-5.787c1.472 0 2.65.89 2.65 2.077 0 1.113-1.178 2.003-2.65 2.003s-2.649-.89-2.649-2.003c-.073-1.187 1.177-2.077 2.65-2.077zm7.947 2.893c0 .52.074.817.515.817h3.164V23H49.08c-1.03 0-1.692-.816-1.692-1.706v-5.12h2.06v4.303zm7.138-.964c.81 0 1.693-.074 1.693-1.855V16.1h2.06v1.558c0 1.558-.515 3.413-2.65 3.413v1.78h-2.06v-1.78c-2.134-.074-2.649-1.929-2.649-3.413V16.1h2.06v1.558c-.146 1.78.737 1.855 1.546 1.855zM43.414 29.826v-1.632h6.329V29.9h-2.134v5.194h-1.987V29.9h-2.208v-.074zm12.363 1.855c0 1.113.883 1.854 2.722 1.854h1.84v1.633h-2.134c-2.944-.074-4.268-1.41-4.268-3.487 0-2.078 1.325-3.413 4.268-3.487h2.134v1.632h-1.84c-1.913 0-2.722.742-2.722 1.855zm-15.6-.89c3.385-.075 3.532 4.451-.148 4.228H36.35v-1.706h3.827c.809 0 .883-.89 0-.89h-1.62c-1.545 0-2.648-.594-2.648-2.004 0-1.41 1.03-2.3 2.575-2.3h3.68v1.633H38.41c-.809 0-.809.964-.073.964h1.84v.074zm10.743 4.154V28.12h2.06v6.826h-2.06zm-23.62-2.67c0-3.265 2.207-4.081 5.37-4.081h2.061v6.825h-2.06v-1.706h-3.238v1.706h-2.207v-2.745h.073zm5.37-.594h-3.237c0-1.855 1.251-1.93 3.164-1.781v1.78h.074z" fill="#fff"/><path fill-rule="evenodd" clip-rule="evenodd" d="M23.031 11.129c0-2.077 4.047-3.71 9.125-3.71 1.766 0 3.458.223 4.783.52 2.649.667 4.341 1.854 4.341 3.19 0 1.335-1.766 2.523-4.341 3.19-1.398.371-3.017.52-4.783.52-5.078 0-9.125-1.633-9.125-3.71zm-.881 11.648h.514V19.44c4.857.148 8.61 1.706 8.61 3.71 0 2.003-3.753 3.635-8.61 3.709v-2.597h-2.207v2.523c-4.342-.297-7.506-1.855-7.506-3.71s3.238-3.339 7.506-3.71v3.34h1.692v.073zm167.847 6.233c0 2.522 2.207 3.042 3.826 3.042h2.943v2.967h-3.605c-8.463-.222-8.095-12.093 0-12.093h3.605v2.968h-2.943c-1.619 0-3.826.593-3.826 3.116zm8.021-3.117h3.9v9.126h3.311v-9.125h3.9v-2.968h-11.111v2.968zm35.394 9.127v-3.117c0-1.187 0-2.374-1.545-3.264 1.619-.52 1.545-2.449 1.545-3.636v-2.077h-3.679c0 2.3.294 4.229-1.546 4.229h-1.986v-4.23h-3.238V35.02h3.385v-4.896h1.987c.735 0 1.471.445 1.471 1.632v3.264h3.606zM105.374 22.926h-8.095v12.093h3.385v-9.125h3.017c.81 0 .883.593.883 1.41v7.715h3.385v-9.422c-.147-1.41-1.177-2.597-2.575-2.671zm52.172 0h-8.095v12.093h3.385v-9.125h3.017c.809 0 .883.593.883 1.41v7.715h3.385v-9.422c-.074-1.41-1.104-2.597-2.575-2.671zm-27.815-10.313h-4.489v6.752h1.84v-5.12h1.692c.442 0 .515.297.515.816v4.303h1.914v-5.267c-.148-.816-.663-1.41-1.472-1.484zm-7.434 0h-4.488v6.752h1.839v-5.12h1.693c.441 0 .515.297.515.816v4.303h1.913v-5.267c-.074-.816-.662-1.41-1.472-1.484zm7.581 10.313h5.151v12.093h-3.385v-9.125h-1.471c-1.84 0-2.429.667-2.429 3.116v6.01h-3.385v-6.233c0-3.264 1.546-5.935 5.519-5.861zm37.748 0h5.151v12.093h-3.385v-9.125h-1.471c-1.84 0-2.429.667-2.429 3.116v6.01h-3.385v-6.233c0-3.264 1.619-5.935 5.519-5.861z" fill="#fff"/><path fill-rule="evenodd" clip-rule="evenodd" d="M180.283 22.926h5.15v12.093h-3.384v-3.116h-3.9v3.116h-3.385v-6.232c0-3.264 1.545-5.935 5.519-5.861zm1.766 6.01v-3.042c-.663 0-1.546-.075-2.282.074-1.177.222-1.692.964-1.692 2.968h3.974zM135.69 12.613h2.87v6.752h-1.84v-1.707h-2.207v1.706H132.6v-3.487c0-1.854.883-3.264 3.09-3.264zm1.03 3.339v-1.707h-.809c-1.03 0-1.325.371-1.325 1.707h2.134zm2.723 19.068h8.094V22.925h-3.385v9.126h-3.017c-.809 0-.883-.594-.883-1.41v-7.716h-3.385v9.422c.147 1.41 1.104 2.523 2.576 2.671zm73.66 0h8.094V22.925h-3.385v9.126h-3.017c-.809 0-.883-.594-.883-1.41v-7.716h-3.385v9.422c.148 1.41 1.178 2.523 2.576 2.671zm-98.31-15.656h-4.489v-1.706h3.532c.442 0 .515-.223.515-.668h-2.649c-.809-.074-1.398-.742-1.472-1.483v-2.894h1.914v1.929c0 .445.073.816.515.816h1.692v-2.745h1.84v5.267c0 .743-.589 1.41-1.398 1.485zm-7.212-6.751h-4.415v6.752h1.84v-1.336h2.207c1.619 0 1.913-1.113 1.913-1.855v-2.077c-.073-.742-.588-1.41-1.398-1.484h-.147zm-2.575 3.784v-2.152h1.692c.442 0 .515.297.515.816v.742c0 .371-.294.52-.588.52h-1.619v.074zm-6.256-3.784h3.091v1.632h-2.208c-.441 0-.515.297-.515.816v4.303h-1.913v-5.267c.074-.816.736-1.484 1.545-1.484zm16.778 10.313h1.398a6.05 6.05 0 014.268 1.78 6.017 6.017 0 011.766 4.304c0 1.632-.662 3.19-1.766 4.303a5.919 5.919 0 01-4.268 1.78h-1.398a6.047 6.047 0 01-4.268-1.78 6.017 6.017 0 01-1.766-4.303 6.15 6.15 0 011.766-4.304 5.92 5.92 0 014.268-1.78zm1.325 2.968h-1.398c-.884 0-1.619.296-2.208.89-.589.593-.883 1.335-.883 2.226 0 .89.368 1.632.883 2.225.589.594 1.324.89 2.208.89h1.398c.883 0 1.618-.296 2.207-.89.589-.593.883-1.335.883-2.225 0-.89-.368-1.633-.883-2.226-.589-.594-1.324-.89-2.207-.89z" fill="#fff"/><path d="M86.684 12.613h-1.325v22.406h1.325V12.613z" fill="#fff"/></svg>
